fs/weather_partly_cloudy_day_24_regular.svg

<svg viewBox="0 0 24 24" fill="none" xmlns="http://www.w3.org/2000/svg" height="1em" width="1em">
  <path d="M13.002 8.00695C16.1706 8.00695 17.968 10.1042 18.2294 12.6371L18.3094 12.6371C20.3485 12.6371 22.0015 14.2858 22.0015 16.3196C22.0015 18.3534 20.3485 20.0021 18.3094 20.0021H7.69467C5.65559 20.0021 4.00259 18.3534 4.00259 16.3196C4.00259 14.2858 5.65559 12.6371 7.69469 12.6371L7.77464 12.6371C8.03757 10.0876 9.83351 8.00695 13.002 8.00695ZM13.002 9.50454C10.9307 9.50454 9.12533 11.1378 9.12533 13.3938C9.12533 13.7512 8.80638 14.0317 8.44117 14.0317L7.75061 14.0317C6.48962 14.0317 5.46738 15.033 5.46738 16.2681C5.46738 17.5033 6.48962 18.5045 7.75061 18.5045H18.2535C19.5145 18.5045 20.5367 17.5033 20.5367 16.2681C20.5367 15.033 19.5145 14.0317 18.2535 14.0317L17.5629 14.0317C17.1977 14.0317 16.8787 13.7512 16.8787 13.3938C16.8787 11.1088 15.0734 9.50454 13.002 9.50454ZM4.36766 12.1624C4.51297 12.5132 4.37237 12.9111 4.05317 13.097L3.96177 13.1423L3.0355 13.526C2.65282 13.6845 2.21409 13.5028 2.05558 13.1201C1.91027 12.7693 2.05087 12.3714 2.37007 12.1854L2.46147 12.1402L3.38774 11.7565C3.77042 11.598 4.20915 11.7797 4.36766 12.1624ZM10.8547 7.32918L10.6831 7.38676C10.149 7.57544 9.66027 7.83083 9.22278 8.14484C8.68936 7.97096 8.09307 7.97931 7.53358 8.21106C6.28779 8.72708 5.6962 10.1553 6.21222 11.4011C6.27283 11.5474 6.34602 11.6847 6.43002 11.8123C5.9378 11.9497 5.47684 12.1681 5.06348 12.4515C4.97466 12.3014 4.89547 12.1419 4.8264 11.9751C3.99335 9.96397 4.9484 7.65829 6.95956 6.82524C8.30185 6.26924 9.77535 6.50976 10.8547 7.32918ZM2.94091 7.36026L3.04642 7.39516L3.97269 7.77883C4.35537 7.93735 4.53709 8.37607 4.37858 8.75876C4.23448 9.10665 3.8588 9.28846 3.50417 9.19955L3.39866 9.16465L2.47239 8.78098C2.08971 8.62247 1.90798 8.18374 2.0665 7.80106C2.2106 7.45317 2.58628 7.27135 2.94091 7.36026ZM6.75614 4.37384L6.80141 4.46524L7.18508 5.39151C7.34359 5.77419 7.16187 6.21292 6.77918 6.37143C6.42839 6.51673 6.03051 6.37614 5.84453 6.05694L5.79926 5.96553L5.41559 5.03927C5.25708 4.65658 5.4388 4.21786 5.82149 4.05935C6.17228 3.91404 6.57017 4.05463 6.75614 4.37384ZM11.1095 4.05533C11.4574 4.19944 11.6392 4.57512 11.5503 4.92975L11.5154 5.03526L11.1317 5.96152C10.9732 6.3442 10.5345 6.52593 10.1518 6.36742C9.80389 6.22332 9.62208 5.84763 9.71099 5.493L9.74589 5.3875L10.1296 4.46123C10.2881 4.07855 10.7268 3.89682 11.1095 4.05533Z" fill="#212121"/>
</svg>

<svg viewBox="0 0 24 24" fill="none" xmlns="http://www.w3.org/2000/svg" height="1em" width="1em">
  <path d="M13.002 8.007c3.169 0 4.966 2.097 5.227 4.63h.08a3.687 3.687 0 0 1 3.692 3.683 3.687 3.687 0 0 1-3.692 3.682H7.695a3.687 3.687 0 0 1-3.692-3.682 3.687 3.687 0 0 1 3.692-3.683h.08c.263-2.55 2.059-4.63 5.227-4.63Zm0 1.498c-2.071 0-3.877 1.633-3.877 3.889 0 .357-.319.638-.684.638h-.69c-1.261 0-2.284 1.001-2.284 2.236 0 1.235 1.023 2.236 2.284 2.236h10.502c1.262 0 2.284-1 2.284-2.236 0-1.235-1.022-2.236-2.284-2.236h-.69c-.365 0-.684-.28-.684-.638 0-2.285-1.806-3.89-3.877-3.89Zm-8.634 2.657a.75.75 0 0 1-.315.935l-.091.045-.927.384a.75.75 0 0 1-.665-1.34l.091-.046.927-.383a.75.75 0 0 1 .98.405Zm6.487-4.833-.172.058a5.822 5.822 0 0 0-1.46.758 2.442 2.442 0 0 0-2.793 3.667 4.61 4.61 0 0 0-1.367.64 3.942 3.942 0 0 1 5.791-5.122ZM2.94 7.36l.105.035.927.384a.75.75 0 0 1-.469 1.42L3.4 9.166l-.927-.384a.75.75 0 0 1 .469-1.42Zm3.815-2.986.045.091.384.927a.75.75 0 0 1-1.34.665l-.046-.091-.383-.927a.75.75 0 0 1 1.34-.665Zm4.354-.319a.75.75 0 0 1 .44.875l-.035.105-.383.927a.75.75 0 0 1-1.421-.469l.035-.106.384-.926a.75.75 0 0 1 .98-.406Z" fill="#212121"/>
</svg>
